ru/_assets/tracker/svg/end.svg

<svg width="93" height="20" viewBox="0 0 93 20" fill="none" xmlns="http://www.w3.org/2000/svg">
<g clip-path="url(#clip0_3479_35393)">
<path fill-rule="evenodd" clip-rule="evenodd" d="M16.125 10C16.125 12.2782 14.2782 14.125 12 14.125C9.72182 14.125 7.875 12.2782 7.875 10C7.875 7.72182 9.72182 5.875 12 5.875C14.2782 5.875 16.125 7.72182 16.125 10ZM17.25 10C17.25 12.8995 14.8995 15.25 12 15.25C9.1005 15.25 6.75 12.8995 6.75 10C6.75 7.1005 9.1005 4.75 12 4.75C14.8995 4.75 17.25 7.1005 17.25 10ZM14.325 8.8375C14.5114 8.58897 14.461 8.2364 14.2125 8.05C13.964 7.8636 13.6114 7.91397 13.425 8.1625L11.5641 10.6436L10.5227 9.60225C10.3031 9.38258 9.94692 9.38258 9.72725 9.60225C9.50758 9.82192 9.50758 10.1781 9.72725 10.3977L11.2273 11.8977C11.3426 12.013 11.5022 12.0726 11.6649 12.0611C11.8275 12.0495 11.9772 11.9679 12.075 11.8375L14.325 8.8375Z" fill="#3AB935"/>
</g>
<path d="M25.327 9.736V8.696H26.64C27.29 8.696 27.784 8.55733 28.122 8.28C28.46 7.994 28.629 7.604 28.629 7.11C28.629 6.58133 28.4513 6.20867 28.096 5.992C27.7407 5.76667 27.2727 5.654 26.692 5.654C26.094 5.654 25.5567 5.719 25.08 5.849C24.6033 5.979 24.183 6.13933 23.819 6.33V5.173C24.105 5.02567 24.4777 4.887 24.937 4.757C25.405 4.627 25.9943 4.562 26.705 4.562C27.6757 4.562 28.447 4.76567 29.019 5.173C29.591 5.57167 29.877 6.19133 29.877 7.032C29.877 7.578 29.7123 8.02867 29.383 8.384C29.0623 8.73933 28.59 8.99067 27.966 9.138C28.7027 9.23333 29.2573 9.45867 29.63 9.814C30.0113 10.1607 30.202 10.659 30.202 11.309C30.202 11.803 30.1067 12.232 29.916 12.596C29.7253 12.9513 29.4653 13.2417 29.136 13.467C28.8153 13.6923 28.434 13.8613 27.992 13.974C27.55 14.078 27.082 14.13 26.588 14.13C25.886 14.13 25.2837 14.0477 24.781 13.883C24.2783 13.7097 23.91 13.5233 23.676 13.324V12.154C24.482 12.7347 25.4397 13.025 26.549 13.025C26.8697 13.025 27.173 12.999 27.459 12.947C27.745 12.8863 27.9963 12.791 28.213 12.661C28.4297 12.531 28.5987 12.3577 28.72 12.141C28.85 11.9243 28.915 11.6557 28.915 11.335C28.915 10.7457 28.7243 10.334 28.343 10.1C27.9703 9.85733 27.4113 9.736 26.666 9.736H25.327ZM35.7591 12.713C35.6811 12.869 35.5814 13.0337 35.4601 13.207C35.3388 13.3717 35.1871 13.5233 35.0051 13.662C34.8231 13.8007 34.6064 13.9133 34.3551 14C34.1124 14.0867 33.8264 14.13 33.4971 14.13C32.8904 14.13 32.4008 13.961 32.0281 13.623C31.6554 13.2763 31.4691 12.7823 31.4691 12.141C31.4691 11.4043 31.7248 10.8627 32.2361 10.516C32.7561 10.1693 33.4928 9.996 34.4461 9.996H35.7071V9.437C35.7071 8.969 35.5858 8.63533 35.3431 8.436C35.1004 8.23667 34.6844 8.137 34.0951 8.137C33.6791 8.137 33.2848 8.20633 32.9121 8.345C32.5394 8.475 32.2058 8.62667 31.9111 8.8V7.773C32.1538 7.62567 32.4788 7.48267 32.8861 7.344C33.3021 7.19667 33.7571 7.123 34.2511 7.123C35.1004 7.123 35.7461 7.30067 36.1881 7.656C36.6301 8.00267 36.8511 8.54433 36.8511 9.281V12.908C36.8511 12.986 36.8511 13.077 36.8511 13.181C36.8598 13.2763 36.8641 13.376 36.8641 13.48C36.8728 13.584 36.8814 13.6837 36.8901 13.779C36.8988 13.8657 36.9074 13.9393 36.9161 14H35.8761C35.8501 13.8787 35.8241 13.7097 35.7981 13.493C35.7808 13.2677 35.7721 13.0727 35.7721 12.908L35.7591 12.713ZM33.7441 13.103C34.0994 13.103 34.4028 13.0293 34.6541 12.882C34.9054 12.7347 35.1091 12.5657 35.2651 12.375C35.4211 12.1757 35.5338 11.985 35.6031 11.803C35.6724 11.6123 35.7071 11.478 35.7071 11.4V10.906H34.5631C33.8784 10.906 33.3801 11.0057 33.0681 11.205C32.7648 11.3957 32.6131 11.686 32.6131 12.076C32.6131 12.3793 32.7041 12.6263 32.8861 12.817C33.0681 13.0077 33.3541 13.103 33.7441 13.103ZM38.6499 7.253H41.1719C41.9865 7.253 42.6019 7.396 43.0179 7.682C43.4339 7.95933 43.6419 8.397 43.6419 8.995C43.6419 9.39367 43.5379 9.71433 43.3299 9.957C43.1305 10.191 42.8445 10.36 42.4719 10.464C43.4339 10.62 43.9149 11.153 43.9149 12.063C43.9149 12.4097 43.8455 12.7087 43.7069 12.96C43.5682 13.2027 43.3775 13.402 43.1349 13.558C42.8922 13.714 42.5975 13.8267 42.2509 13.896C41.9129 13.9653 41.5445 14 41.1459 14H38.6499V7.253ZM39.7939 8.228V10.061H41.0679C41.5012 10.061 41.8479 9.983 42.1079 9.827C42.3765 9.671 42.5109 9.44567 42.5109 9.151C42.5109 8.79567 42.3939 8.553 42.1599 8.423C41.9259 8.293 41.5922 8.228 41.1589 8.228H39.7939ZM39.7939 10.971V13.025H41.1329C41.3755 13.025 41.5922 13.012 41.7829 12.986C41.9822 12.9513 42.1512 12.895 42.2899 12.817C42.4372 12.739 42.5499 12.635 42.6279 12.505C42.7059 12.375 42.7449 12.2147 42.7449 12.024C42.7449 11.634 42.6105 11.361 42.3419 11.205C42.0732 11.049 41.6702 10.971 41.1329 10.971H39.7939ZM51.0013 13.428C50.906 13.4973 50.789 13.571 50.6503 13.649C50.5116 13.727 50.3426 13.805 50.1433 13.883C49.944 13.9523 49.7186 14.0087 49.4673 14.052C49.216 14.104 48.9343 14.13 48.6223 14.13C47.487 14.13 46.6246 13.8223 46.0353 13.207C45.446 12.5917 45.1513 11.7293 45.1513 10.62C45.1513 10.074 45.2293 9.58433 45.3853 9.151C45.55 8.71767 45.7753 8.35367 46.0613 8.059C46.3473 7.75567 46.6853 7.526 47.0753 7.37C47.4653 7.20533 47.89 7.123 48.3493 7.123C48.8346 7.123 49.268 7.20533 49.6493 7.37C50.0306 7.53467 50.3426 7.77733 50.5853 8.098C50.8366 8.41867 51.0056 8.81733 51.0923 9.294C51.1876 9.762 51.1876 10.308 51.0923 10.932H46.3343C46.3776 11.66 46.5943 12.206 46.9843 12.57C47.3743 12.9253 47.955 13.103 48.7263 13.103C49.2463 13.103 49.6926 13.0293 50.0653 12.882C50.438 12.7347 50.75 12.5743 51.0013 12.401V13.428ZM48.3233 8.137C47.8293 8.137 47.4046 8.28867 47.0493 8.592C46.694 8.89533 46.4686 9.35467 46.3733 9.97H50.0003C50.035 9.346 49.892 8.88667 49.5713 8.592C49.2506 8.28867 48.8346 8.137 48.3233 8.137ZM56.0204 14.13C55.5004 14.13 55.0497 14.0087 54.6684 13.766C54.2957 13.5233 53.9967 13.1897 53.7714 12.765V16.301H52.6274V7.253H53.6284L53.7454 8.566C53.9707 8.124 54.2741 7.773 54.6554 7.513C55.0367 7.253 55.5091 7.123 56.0724 7.123C56.4624 7.123 56.8351 7.19667 57.1904 7.344C57.5544 7.48267 57.8707 7.69933 58.1394 7.994C58.4167 8.28 58.6334 8.644 58.7894 9.086C58.9541 9.51933 59.0364 10.0307 59.0364 10.62C59.0364 11.218 58.9541 11.738 58.7894 12.18C58.6247 12.6133 58.4037 12.9773 58.1264 13.272C57.8491 13.558 57.5284 13.7747 57.1644 13.922C56.8004 14.0607 56.4191 14.13 56.0204 14.13ZM55.8514 13.103C56.4494 13.103 56.9304 12.8993 57.2944 12.492C57.6671 12.076 57.8534 11.452 57.8534 10.62C57.8534 9.80533 57.6671 9.19 57.2944 8.774C56.9304 8.34933 56.4494 8.137 55.8514 8.137C55.5567 8.137 55.2794 8.189 55.0194 8.293C54.7681 8.397 54.5471 8.553 54.3564 8.761C54.1744 8.96033 54.0271 9.216 53.9144 9.528C53.8104 9.84 53.7584 10.204 53.7584 10.62C53.7584 11.036 53.8104 11.4 53.9144 11.712C54.0271 12.024 54.1744 12.284 54.3564 12.492C54.5471 12.7 54.7681 12.856 55.0194 12.96C55.2794 13.0553 55.5567 13.103 55.8514 13.103ZM68.8463 14H60.4223V7.253H61.5663V13.025H64.0623V7.253H65.2063V13.025H67.7023V7.253H68.8463V14ZM76.0872 13.428C75.9919 13.4973 75.8749 13.571 75.7362 13.649C75.5976 13.727 75.4286 13.805 75.2292 13.883C75.0299 13.9523 74.8046 14.0087 74.5532 14.052C74.3019 14.104 74.0202 14.13 73.7082 14.13C72.5729 14.13 71.7106 13.8223 71.1212 13.207C70.5319 12.5917 70.2372 11.7293 70.2372 10.62C70.2372 10.074 70.3152 9.58433 70.4712 9.151C70.6359 8.71767 70.8612 8.35367 71.1472 8.059C71.4332 7.75567 71.7712 7.526 72.1612 7.37C72.5512 7.20533 72.9759 7.123 73.4352 7.123C73.9206 7.123 74.3539 7.20533 74.7352 7.37C75.1166 7.53467 75.4286 7.77733 75.6712 8.098C75.9226 8.41867 76.0916 8.81733 76.1782 9.294C76.2736 9.762 76.2736 10.308 76.1782 10.932H71.4202C71.4636 11.66 71.6802 12.206 72.0702 12.57C72.4602 12.9253 73.0409 13.103 73.8122 13.103C74.3322 13.103 74.7786 13.0293 75.1512 12.882C75.5239 12.7347 75.8359 12.5743 76.0872 12.401V13.428ZM73.4092 8.137C72.9152 8.137 72.4906 8.28867 72.1352 8.592C71.7799 8.89533 71.5546 9.35467 71.4592 9.97H75.0862C75.1209 9.346 74.9779 8.88667 74.6572 8.592C74.3366 8.28867 73.9206 8.137 73.4092 8.137ZM82.1203 11.01H78.8573V14H77.7133V7.253H78.8573V10.035H82.1203V7.253H83.2643V14H82.1203V11.01Z" fill="#3AB935"/>
<defs>
<clipPath id="clip0_3479_35393">
<rect width="12" height="12" fill="white" transform="translate(6 4)"/>
</clipPath>
</defs>
</svg>

<svg xmlns="http://www.w3.org/2000/svg" width="93" height="20" fill="none" viewBox="0 0 93 20">
    <g clip-path="url(#clip0_3479_35393)">
        <path fill="#3AB935" fill-rule="evenodd" d="M16.125 10a4.125 4.125 0 1 1-8.25 0 4.125 4.125 0 0 1 8.25 0Zm1.125 0a5.25 5.25 0 1 1-10.5 0 5.25 5.25 0 0 1 10.5 0Zm-2.925-1.162a.563.563 0 0 0-.9-.675l-1.86 2.48-1.042-1.04a.562.562 0 1 0-.796.795l1.5 1.5a.563.563 0 0 0 .848-.06l2.25-3Z" clip-rule="evenodd"/>
    </g>
    <path fill="#3AB935" d="M25.327 9.736v-1.04h1.313c.65 0 1.144-.139 1.482-.416.338-.286.507-.676.507-1.17 0-.529-.178-.901-.533-1.118-.355-.225-.823-.338-1.404-.338a6.132 6.132 0 0 0-2.873.676V5.173a6.14 6.14 0 0 1 1.118-.416c.468-.13 1.057-.195 1.768-.195.97 0 1.742.204 2.314.611.572.399.858 1.018.858 1.859 0 .546-.165.997-.494 1.352-.32.355-.793.607-1.417.754.737.095 1.291.32 1.664.676.381.347.572.845.572 1.495 0 .494-.095.923-.286 1.287-.19.355-.45.646-.78.871a3.46 3.46 0 0 1-1.144.507c-.442.104-.91.156-1.404.156-.702 0-1.304-.082-1.807-.247-.503-.173-.871-.36-1.105-.559v-1.17c.806.58 1.764.871 2.873.871.32 0 .624-.026.91-.078.286-.06.537-.156.754-.286.217-.13.386-.303.507-.52.13-.217.195-.485.195-.806 0-.59-.19-1.001-.572-1.235-.373-.243-.932-.364-1.677-.364h-1.339Zm10.432 2.977c-.078.156-.178.32-.299.494a2.26 2.26 0 0 1-1.105.793c-.243.087-.529.13-.858.13-.607 0-1.096-.169-1.469-.507-.373-.347-.559-.84-.559-1.482 0-.737.256-1.278.767-1.625.52-.347 1.257-.52 2.21-.52h1.261v-.559c0-.468-.121-.802-.364-1.001-.243-.2-.659-.299-1.248-.299-.416 0-.81.07-1.183.208-.373.13-.706.282-1 .455V7.773c.242-.147.567-.29.974-.429a4.063 4.063 0 0 1 1.365-.221c.85 0 1.495.178 1.937.533.442.347.663.888.663 1.625v3.9c.009.095.013.195.013.299l.026.299c.009.087.017.16.026.221h-1.04a5.934 5.934 0 0 1-.078-.507 7.787 7.787 0 0 1-.026-.585l-.013-.195Zm-2.015.39c.355 0 .659-.074.91-.221.251-.147.455-.316.611-.507.156-.2.269-.39.338-.572.07-.19.104-.325.104-.403v-.494h-1.144c-.685 0-1.183.1-1.495.299-.303.19-.455.481-.455.871 0 .303.091.55.273.741.182.19.468.286.858.286Zm4.906-5.85h2.522c.815 0 1.43.143 1.846.429.416.277.624.715.624 1.313 0 .399-.104.72-.312.962-.2.234-.486.403-.858.507.962.156 1.443.689 1.443 1.599 0 .347-.07.646-.208.897-.139.243-.33.442-.572.598a2.544 2.544 0 0 1-.884.338c-.338.07-.706.104-1.105.104H38.65V7.253Zm1.144.975v1.833h1.274c.433 0 .78-.078 1.04-.234.269-.156.403-.381.403-.676 0-.355-.117-.598-.351-.728-.234-.13-.568-.195-1.001-.195h-1.365Zm0 2.743v2.054h1.339c.242 0 .46-.013.65-.039.2-.035.368-.091.507-.169a.843.843 0 0 0 .338-.312.92.92 0 0 0 .117-.481c0-.39-.134-.663-.403-.819-.269-.156-.672-.234-1.21-.234h-1.338ZM51 13.428a3.51 3.51 0 0 1-.35.221 4.075 4.075 0 0 1-.508.234c-.199.07-.424.126-.676.169a4.185 4.185 0 0 1-.845.078c-1.135 0-1.997-.308-2.587-.923-.589-.615-.884-1.478-.884-2.587 0-.546.078-1.036.234-1.469.165-.433.39-.797.676-1.092a2.812 2.812 0 0 1 1.014-.689c.39-.165.815-.247 1.274-.247.486 0 .919.082 1.3.247.382.165.694.407.936.728.252.32.42.72.507 1.196.096.468.096 1.014 0 1.638h-4.758c.044.728.26 1.274.65 1.638.39.355.971.533 1.742.533.52 0 .967-.074 1.34-.221a4.69 4.69 0 0 0 .935-.481v1.027Zm-2.678-5.291a1.9 1.9 0 0 0-1.274.455c-.355.303-.58.763-.676 1.378H50c.035-.624-.108-1.083-.429-1.378-.32-.303-.736-.455-1.248-.455Zm7.697 5.993c-.52 0-.97-.121-1.352-.364a2.647 2.647 0 0 1-.897-1.001v3.536h-1.144V7.253h1.001l.117 1.313c.226-.442.53-.793.91-1.053.382-.26.854-.39 1.417-.39.39 0 .763.074 1.118.221.364.139.68.355.95.65.277.286.493.65.65 1.092.164.433.246.945.246 1.534 0 .598-.082 1.118-.247 1.56a3.262 3.262 0 0 1-.663 1.092 2.78 2.78 0 0 1-.962.65 3.185 3.185 0 0 1-1.144.208Zm-.169-1.027c.598 0 1.08-.204 1.443-.611.373-.416.56-1.04.56-1.872 0-.815-.187-1.43-.56-1.846-.364-.425-.845-.637-1.443-.637a2.22 2.22 0 0 0-.832.156c-.25.104-.472.26-.663.468-.182.2-.329.455-.442.767a3.457 3.457 0 0 0-.156 1.092c0 .416.052.78.156 1.092.113.312.26.572.442.78.191.208.412.364.663.468.26.095.538.143.832.143ZM68.846 14h-8.424V7.253h1.144v5.772h2.496V7.253h1.144v5.772h2.496V7.253h1.144V14Zm7.241-.572a3.51 3.51 0 0 1-.35.221 4.062 4.062 0 0 1-.508.234c-.2.07-.424.126-.676.169a4.185 4.185 0 0 1-.845.078c-1.135 0-1.997-.308-2.587-.923-.59-.615-.884-1.478-.884-2.587 0-.546.078-1.036.234-1.469.165-.433.39-.797.676-1.092a2.812 2.812 0 0 1 1.014-.689c.39-.165.815-.247 1.274-.247.486 0 .919.082 1.3.247.382.165.694.407.936.728.252.32.42.72.507 1.196.096.468.096 1.014 0 1.638H71.42c.044.728.26 1.274.65 1.638.39.355.97.533 1.742.533.52 0 .967-.074 1.34-.221a4.69 4.69 0 0 0 .935-.481v1.027ZM73.41 8.137a1.9 1.9 0 0 0-1.274.455c-.355.303-.58.763-.676 1.378h3.627c.035-.624-.108-1.083-.429-1.378-.32-.303-.736-.455-1.248-.455Zm8.711 2.873h-3.263V14h-1.144V7.253h1.144v2.782h3.263V7.253h1.144V14H82.12v-2.99Z"/>
    <defs>
        <clipPath id="clip0_3479_35393">
            <path fill="#fff" d="M6 4h12v12H6z"/>
        </clipPath>
    </defs>
</svg>
